src/images/svg/symbols/btc-eth.svg

<svg width="33" height="32" viewBox="0 0 33 32" fill="none" xmlns="http://www.w3.org/2000/svg">
<path d="M2.61328 11C2.61328 6.02944 6.64272 2 11.6133 2C16.5838 2 20.6133 6.02944 20.6133 11C20.6133 15.9706 16.5838 20 11.6133 20C6.64272 20 2.61328 15.9706 2.61328 11Z" fill="#F7931A"/>
<path d="M15.6567 9.88625C15.8333 8.70725 14.935 8.07331 13.7076 7.65031L14.1059 6.05281L13.1339 5.81094L12.7457 7.36625C12.4904 7.30212 12.2282 7.2425 11.9667 7.18287L12.3576 5.61744L11.3856 5.375L10.9874 6.97194C10.7759 6.92356 10.5677 6.87631 10.3664 6.82569L10.3675 6.82062L9.02648 6.48594L8.76773 7.52431C8.76773 7.52431 9.48942 7.68969 9.47423 7.69981C9.86798 7.79825 9.93886 8.05869 9.92705 8.26569L9.47367 10.0854C9.50067 10.0921 9.53555 10.1023 9.57492 10.1174L9.47198 10.0921L8.83636 12.6414C8.78798 12.7606 8.66592 12.9401 8.3903 12.872C8.40042 12.8861 7.6838 12.6959 7.6838 12.6959L7.20117 13.8086L8.4668 14.1241C8.70192 14.1832 8.93255 14.2451 9.15923 14.303L8.75705 15.9185L9.72848 16.1604L10.1267 14.5629C10.3922 14.6343 10.6499 14.7007 10.9019 14.7637L10.5047 16.3544L11.4767 16.5963L11.8789 14.9842C13.5372 15.2981 14.7837 15.1715 15.3085 13.6719C15.7315 12.4648 15.2877 11.7678 14.4152 11.3139C15.0509 11.1676 15.529 10.7497 15.6567 9.88625ZM13.4348 13.0014C13.135 14.2091 11.1015 13.556 10.4423 13.3923L10.9767 11.252C11.6359 11.4168 13.7492 11.7425 13.4348 13.0014ZM13.7357 9.86881C13.4618 10.9674 11.7698 10.4088 11.2214 10.2721L11.7051 8.3315C12.2535 8.46819 14.0215 8.723 13.7357 9.86881Z" fill="white"/>
<path d="M12.6133 21C12.6133 16.0294 16.6427 12 21.6133 12C26.5838 12 30.6133 16.0294 30.6133 21C30.6133 25.9706 26.5838 30 21.6133 30C16.6427 30 12.6133 25.9706 12.6133 21Z" fill="#EBF0F1"/>
<path d="M21.6113 14.25V23.5679L25.8284 21.1238L21.6113 14.25Z" fill="#12100B" fill-opacity="0.8"/>
<path d="M21.6122 14.25L17.3945 21.1238L21.6122 23.5706V14.25Z" fill="#12100B" fill-opacity="0.45"/>
<path d="M21.6113 24.3571V27.7472L25.8312 21.9091L21.6113 24.3571Z" fill="#12100B" fill-opacity="0.8"/>
<path d="M21.6122 27.7472V24.3565L17.3945 21.9091L21.6122 27.7472Z" fill="#12100B" fill-opacity="0.45"/>
<path d="M21.6113 23.5723L25.8284 21.1237L21.6113 19.2405V23.5723Z" fill="#12100B" fill-opacity="0.6"/>
<path d="M17.3945 21.1237L21.6122 23.5723V19.2405L17.3945 21.1237Z" fill="#12100B" fill-opacity="0.6"/>
</svg>

<svg width="33" height="32" fill="none" xmlns="http://www.w3.org/2000/svg"><path d="M2.613 11a9 9 0 1 1 18 0 9 9 0 0 1-18 0Z" fill="#F7931A"/><path d="M15.657 9.886c.176-1.179-.722-1.813-1.95-2.236l.399-1.597-.972-.242-.388 1.555c-.256-.064-.518-.123-.78-.183l.392-1.566-.972-.242-.399 1.597c-.211-.048-.42-.096-.62-.146V6.82l-1.34-.335-.26 1.038s.722.166.707.176c.394.098.465.359.453.566l-.453 1.82a.87.87 0 0 1 .1.031l-.102-.025-.636 2.55c-.048.119-.17.298-.446.23.01.014-.706-.176-.706-.176L7.2 13.809l1.266.315.692.179-.402 1.615.971.242.399-1.597c.265.071.523.138.775.2l-.397 1.591.972.242.402-1.612c1.658.314 2.905.188 3.43-1.312.423-1.207-.021-1.904-.894-2.358.636-.146 1.114-.564 1.242-1.428Zm-2.222 3.115c-.3 1.208-2.334.555-2.993.391l.535-2.14c.659.165 2.772.49 2.458 1.75Zm.3-3.132c-.273 1.098-1.965.54-2.514.403l.484-1.94c.549.136 2.316.391 2.03 1.537Z" fill="#fff"/><path d="M12.613 21a9 9 0 1 1 18 0 9 9 0 0 1-18 0Z" fill="#EBF0F1"/><path d="M21.611 14.25v9.318l4.217-2.444-4.217-6.874Z" fill="#12100B" fill-opacity=".8"/><path d="m21.612 14.25-4.217 6.874 4.217 2.447V14.25Z" fill="#12100B" fill-opacity=".45"/><path d="M21.611 24.357v3.39l4.22-5.838-4.22 2.448Z" fill="#12100B" fill-opacity=".8"/><path d="M21.612 27.747v-3.39l-4.217-2.448 4.217 5.838Z" fill="#12100B" fill-opacity=".45"/><path d="m21.611 23.572 4.217-2.448-4.217-1.883v4.331Z" fill="#12100B" fill-opacity=".6"/><path d="m17.395 21.124 4.217 2.448v-4.331l-4.217 1.883Z" fill="#12100B" fill-opacity=".6"/></svg>
